SVG_Azure_Grouped/Management/Azure LightHouse My customers.svg

<?xml version="1.0" encoding="UTF-8" standalone="no"?>
<!-- Generated by Microsoft Visio, SVG Export Azure LightHouse My customers.svg Page-1 -->

<svg
   xmlns:dc="http://purl.org/dc/elements/1.1/"
   xmlns:cc="http://creativecommons.org/ns#"
   xmlns:rdf="http://www.w3.org/1999/02/22-rdf-syntax-ns#"
   xmlns:svg="http://www.w3.org/2000/svg"
   xmlns="http://www.w3.org/2000/svg"
   xmlns:sodipodi="http://sodipodi.sourceforge.net/DTD/sodipodi-0.dtd"
   xmlns:inkscape="http://www.inkscape.org/namespaces/inkscape"
   width="0.78771889in"
   height="0.62991667in"
   viewBox="0 0 56.715669 45.354097"
   xml:space="preserve"
   class="st5"
   version="1.1"
   id="svg75"
   sodipodi:docname="Azure LightHouse My customers.svg"
   style="font-size:12px;overflow:visible;color-interpolation-filters:sRGB;fill:none;fill-rule:evenodd;stroke-linecap:square;stroke-miterlimit:3"
   inkscape:version="0.92.5 (2060ec1f9f, 2020-04-08)"><metadata
   id="metadata79"><rdf:RDF><cc:Work
       rdf:about=""><dc:format>image/svg+xml</dc:format><dc:type
         rdf:resource="http://purl.org/dc/dcmitype/StillImage" /></cc:Work></rdf:RDF></metadata><sodipodi:namedview
   pagecolor="#ffffff"
   bordercolor="#666666"
   borderopacity="1"
   objecttolerance="10"
   gridtolerance="10"
   guidetolerance="10"
   inkscape:pageopacity="0"
   inkscape:pageshadow="2"
   inkscape:window-width="640"
   inkscape:window-height="480"
   id="namedview77"
   showgrid="false"
   inkscape:zoom="1.5612629"
   inkscape:cx="37.807656"
   inkscape:cy="30.225665"
   inkscape:window-x="0"
   inkscape:window-y="0"
   inkscape:window-maximized="0"
   inkscape:current-layer="svg75" />
	<style
   type="text/css"
   id="style2">
	<![CDATA[
		.st1 {fill:#0078d4;stroke:none;stroke-linecap:butt;stroke-width:34}
		.st2 {fill:#ffffff;fill-opacity:0.8;stroke:none;stroke-linecap:butt;stroke-width:34}
		.st3 {fill:url(#grad0-12);stroke:none;stroke-linecap:butt;stroke-width:34}
		.st4 {fill:url(#grad0-18);stroke:none;stroke-linecap:butt;stroke-width:34}
		.st5 {fill:none;fill-rule:evenodd;font-size:12px;overflow:visible;stroke-linecap:square;stroke-miterlimit:3}
	]]>
	</style>

	<defs
   id="Patterns_And_Gradients">
		<linearGradient
   id="grad0-12"
   x1="-0.014258082"
   y1="114.69939"
   x2="32.417716"
   y2="114.69939"
   gradientTransform="scale(1.297798,0.77053595)"
   gradientUnits="userSpaceOnUse">
			<stop
   offset="0.22"
   stop-color="#32d4f5"
   stop-opacity="1"
   id="stop4" />
			<stop
   offset="0.47"
   stop-color="#31d1f3"
   stop-opacity="1"
   id="stop6" />
			<stop
   offset="0.63"
   stop-color="#2ec9eb"
   stop-opacity="1"
   id="stop8" />
			<stop
   offset="0.77"
   stop-color="#29bade"
   stop-opacity="1"
   id="stop10" />
			<stop
   offset="0.89"
   stop-color="#22a5cb"
   stop-opacity="1"
   id="stop12" />
			<stop
   offset="1"
   stop-color="#198ab3"
   stop-opacity="1"
   id="stop14" />
			<stop
   offset="1"
   stop-color="#198ab3"
   stop-opacity="1"
   id="stop16" />
		</linearGradient>
		<linearGradient
   id="grad0-18"
   x1="0"
   y1="91.239538"
   x2="23.358944"
   y2="91.239538"
   gradientTransform="scale(1.0108333,0.98928276)"
   gradientUnits="userSpaceOnUse">
			<stop
   offset="0.22"
   stop-color="#32d4f5"
   stop-opacity="1"
   id="stop19" />
			<stop
   offset="0.47"
   stop-color="#31d1f3"
   stop-opacity="1"
   id="stop21" />
			<stop
   offset="0.63"
   stop-color="#2ec9eb"
   stop-opacity="1"
   id="stop23" />
			<stop
   offset="0.77"
   stop-color="#29bade"
   stop-opacity="1"
   id="stop25" />
			<stop
   offset="0.89"
   stop-color="#22a5cb"
   stop-opacity="1"
   id="stop27" />
			<stop
   offset="1"
   stop-color="#198ab3"
   stop-opacity="1"
   id="stop29" />
			<stop
   offset="1"
   stop-color="#198ab3"
   stop-opacity="1"
   id="stop31" />
		</linearGradient>
	</defs>
	<g
   id="g73"
   transform="translate(-33.999933,-34.000202)">
		<title
   id="title35">Page-1</title>
		<g
   id="group12808-1"
   transform="translate(34.0182,-34.0157)">
			<title
   id="title37">Azure LightHouse My customers.12808</title>
			<g
   id="group12809-2">
				<title
   id="title39">Sheet.12809</title>
				<g
   id="shape12810-3"
   transform="translate(28.5233,-7.51797)">
					<title
   id="title41">Sheet.12810</title>
					<path
   d="m 25.63,113.37 a 2.48713,2.4341 -180 0 0 2.52,-2.43 0.881515,0.862718 -180 0 0 0,-0.40055 C 27.17,102.83 22.7,96.55 14.1,96.55 5.51,96.55 0.88,101.97 0,110.54 a 2.48713,2.4341 -180 0 0 2.24,2.71 h 23.39 z"
   class="st1"
   id="path43"
   inkscape:connector-curvature="0"
   style="fill:#0078d4;stroke:none;stroke-width:34;stroke-linecap:butt" />
				</g>
				<g
   id="shape12811-5"
   transform="translate(38.3459,-12.7867)">
					<title
   id="title46">Sheet.12811</title>
					<path
   d="M 4.25,103.76 A 7.58733,7.42554 0 0 1 0,102.52 l 4.22,10.85 4.22,-10.75 a 8.1855,8.01096 0 0 1 -4.19,1.14 z"
   class="st2"
   id="path48"
   inkscape:connector-curvature="0"
   style="fill:#ffffff;fill-opacity:0.8;stroke:none;stroke-width:34;stroke-linecap:butt" />
				</g>
				<g
   id="shape12812-7"
   transform="translate(34.6939,-22.3999)">
					<title
   id="title51">Sheet.12812</title>
					<ellipse
   cx="7.9021502"
   cy="105.636"
   rx="7.9021502"
   ry="7.7336502"
   class="st1"
   id="ellipse53"
   style="fill:#0078d4;stroke:none;stroke-width:34;stroke-linecap:butt" />
				</g>
				<g
   id="shape12813-9">
					<title
   id="title56">Sheet.12813</title>
					<path
   d="m 38.31,113.37 a 3.74644,3.66655 -180 0 0 3.75,-3.67 2.07786,2.03355 -180 0 0 0,-0.43 C 40.61,97.75 33.91,88.38 21.09,88.38 8.28,88.38 1.32,96.33 0,109.18 a 3.77792,3.69736 -180 0 0 3.34,4.04 h 34.94 z"
   class="st3"
   id="path58"
   inkscape:connector-curvature="0"
   style="fill:url(#grad0-12);stroke:none;stroke-width:34;stroke-linecap:butt" />
				</g>
				<g
   id="shape12814-13"
   transform="translate(14.9858,-7.91852)">
					<title
   id="title61">Sheet.12814</title>
					<path
   d="M 6.3,99.04 A 11.6486,11.4002 0 0 1 0,97.19 l 6.3,16.18 6.29,-16.05 A 11.869,11.6159 0 0 1 6.3,99.04 Z"
   class="st2"
   id="path63"
   inkscape:connector-curvature="0"
   style="fill:#ffffff;fill-opacity:0.8;stroke:none;stroke-width:34;stroke-linecap:butt" />
				</g>
				<g
   id="shape12815-15"
   transform="translate(9.38184,-22.2458)">
					<title
   id="title66">Sheet.12815</title>
					<ellipse
   cx="11.806"
   cy="101.816"
   rx="11.806"
   ry="11.5543"
   class="st4"
   id="ellipse68"
   style="fill:url(#grad0-18);stroke:none;stroke-width:34;stroke-linecap:butt" />
				</g>
			</g>
		</g>
	</g>
</svg>

<?xml version="1.0" encoding="UTF-8" standalone="no"?>
<!DOCTYPE svg PUBLIC "-//W3C//DTD SVG 1.1//EN" "http://www.w3.org/Graphics/SVG/1.1/DTD/svg11.dtd">
<!-- Generated by Microsoft Visio, SVG Export Azure LightHouse My customers.svg Page-1 -->
<svg xmlns="http://www.w3.org/2000/svg" xmlns:xlink="http://www.w3.org/1999/xlink" xmlns:ev="http://www.w3.org/2001/xml-events"
		width="1.7321in" height="1.57458in" viewBox="0 0 124.711 113.37" xml:space="preserve" color-interpolation-filters="sRGB"
		class="st5">
	<style type="text/css">
	<![CDATA[
		.st1 {fill:#0078d4;stroke:none;stroke-linecap:butt;stroke-width:34}
		.st2 {fill:#ffffff;fill-opacity:0.8;stroke:none;stroke-linecap:butt;stroke-width:34}
		.st3 {fill:url(#grad0-12);stroke:none;stroke-linecap:butt;stroke-width:34}
		.st4 {fill:url(#grad0-18);stroke:none;stroke-linecap:butt;stroke-width:34}
		.st5 {fill:none;fill-rule:evenodd;font-size:12px;overflow:visible;stroke-linecap:square;stroke-miterlimit:3}
	]]>
	</style>

	<defs id="Patterns_And_Gradients">
		<linearGradient id="grad0-12" x1="0" y1="0" x2="1" y2="0" gradientTransform="rotate(90 0.5 0.5)">
			<stop offset="0.22" stop-color="#32d4f5" stop-opacity="1"/>
			<stop offset="0.47" stop-color="#31d1f3" stop-opacity="1"/>
			<stop offset="0.63" stop-color="#2ec9eb" stop-opacity="1"/>
			<stop offset="0.77" stop-color="#29bade" stop-opacity="1"/>
			<stop offset="0.89" stop-color="#22a5cb" stop-opacity="1"/>
			<stop offset="1" stop-color="#198ab3" stop-opacity="1"/>
			<stop offset="1" stop-color="#198ab3" stop-opacity="1"/>
		</linearGradient>
		<linearGradient id="grad0-18" x1="0" y1="0" x2="1" y2="0" gradientTransform="rotate(85.401203911388 0.5 0.5)">
			<stop offset="0.22" stop-color="#32d4f5" stop-opacity="1"/>
			<stop offset="0.47" stop-color="#31d1f3" stop-opacity="1"/>
			<stop offset="0.63" stop-color="#2ec9eb" stop-opacity="1"/>
			<stop offset="0.77" stop-color="#29bade" stop-opacity="1"/>
			<stop offset="0.89" stop-color="#22a5cb" stop-opacity="1"/>
			<stop offset="1" stop-color="#198ab3" stop-opacity="1"/>
			<stop offset="1" stop-color="#198ab3" stop-opacity="1"/>
		</linearGradient>
	</defs>
	<g>
		<title>Page-1</title>
		<g id="group12515-1" transform="translate(34.0182,-34.0157)">
			<title>Azure LightHouse My customers.12515</title>
			<g id="group12516-2">
				<title>Sheet.12516</title>
				<g id="shape12517-3" transform="translate(28.5233,-7.51797)">
					<title>Sheet.12517</title>
					<path d="M25.63 113.37 A2.48713 2.4341 -180 0 0 28.15 110.94 a0.881515 0.862718 -180 0 0 2.4869E-14 -0.400548
								 C27.17 102.83 22.7 96.55 14.1 96.55 C5.51 96.55 0.88 101.97 0 110.54 A2.48713 2.4341 -180 0 0 2.24
								 113.25 L25.63 113.25 L25.63 113.37 Z" class="st1"/>
				</g>
				<g id="shape12518-5" transform="translate(38.3459,-12.7867)">
					<title>Sheet.12518</title>
					<path d="M4.25 103.76 A7.58733 7.42554 0 0 1 0 102.52 L4.22 113.37 L8.44 102.62 A8.1855 8.01096 0 0 1 4.25 103.76
								 Z" class="st2"/>
				</g>
				<g id="shape12519-7" transform="translate(34.6939,-22.3999)">
					<title>Sheet.12519</title>
					<ellipse cx="7.90215" cy="105.636" rx="7.90215" ry="7.73365" class="st1"/>
				</g>
				<g id="shape12520-9">
					<title>Sheet.12520</title>
					<path d="M38.31 113.37 A3.74644 3.66655 -180 0 0 42.06 109.7 A2.07786 2.03355 -180 0 0 42.06 109.27 C40.61 97.75
								 33.91 88.38 21.09 88.38 C8.28 88.38 1.32 96.33 0 109.18 A3.77792 3.69736 -180 0 0 3.34 113.22 L38.28
								 113.22 L38.31 113.37 Z" class="st3"/>
				</g>
				<g id="shape12521-13" transform="translate(14.9858,-7.91852)">
					<title>Sheet.12521</title>
					<path d="M6.3 99.04 A11.6486 11.4002 0 0 1 0 97.19 L6.3 113.37 L12.59 97.32 A11.869 11.6159 0 0 1 6.3 99.04 Z"
							class="st2"/>
				</g>
				<g id="shape12522-15" transform="translate(9.38184,-22.2458)">
					<title>Sheet.12522</title>
					<ellipse cx="11.806" cy="101.816" rx="11.806" ry="11.5543" class="st4"/>
				</g>
			</g>
		</g>
	</g>
</svg>
